img/promo/top.svg

<?xml version="1.0" encoding="UTF-8"?>
<svg width="57px" height="57px" viewBox="0 0 57 57" version="1.1" xmlns="http://www.w3.org/2000/svg" xmlns:xlink="http://www.w3.org/1999/xlink">
    <!-- Generator: Sketch 50.2 (55047) - http://www.bohemiancoding.com/sketch -->
    <title>like</title>
    <desc>Created with Sketch.</desc>
    <defs>
        <linearGradient x1="50%" y1="0%" x2="50%" y2="100%" id="linearGradient-1">
            <stop stop-color="#B4EC51" offset="0%"></stop>
            <stop stop-color="#429321" offset="100%"></stop>
        </linearGradient>
    </defs>
    <g id="Page-1" stroke="none" stroke-width="1" fill="none" fill-rule="evenodd">
        <g id="Desktop-HD-Copy" transform="translate(-686.000000, -1164.000000)" fill="url(#linearGradient-1)" fill-rule="nonzero">
            <g id="Второй-экран" transform="translate(0.000000, 879.000000)">
                <g id="Товар" transform="translate(97.000000, 274.000000)">
                    <g id="Pro">
                        <g id="Часто-заказывают" transform="translate(564.000000, 1.000000)">
                            <g id="Картинка-и-текст" transform="translate(25.000000, 8.000000)">
                                <g id="like" transform="translate(0.000000, 2.000000)">
                                    <path d="M56.357895,21.1622222 C57.46854,19.6172222 57.078945,17.699 55.41027,16.4972222 C54.711165,15.9936667 54.3923925,15.2288889 54.5784975,14.5012222 C55.0225275,12.7643333 53.8916475,11.0337778 51.8285325,10.2928889 C50.9641275,9.98255556 50.3579325,9.33188889 50.2464975,8.595 C49.9803075,6.83611111 48.2190075,5.46266667 45.9632325,5.25533333 C45.0181725,5.16844444 44.183835,4.69566667 43.78569,4.02166667 C42.8355,2.413 40.6157775,1.53144444 38.388645,1.87744444 C37.4551275,2.02255556 36.4744425,1.77388889 35.828775,1.22888889 C34.2876375,-0.0721111111 31.82709,-0.375777778 29.8459125,0.49 C29.0157075,0.852777778 27.984435,0.852888889 27.1543725,0.49 C25.17291,-0.375777778 22.7129325,-0.0721111111 21.17151,1.22888889 C20.5258425,1.77388889 19.545015,2.02288889 18.61164,1.87744444 C16.3839375,1.53155556 14.164785,2.413 13.2144525,4.02166667 C12.81645,4.69566667 11.98197,5.16833333 11.0370525,5.25522222 C8.7812775,5.46266667 7.019835,6.836 6.7537875,8.595 C6.6423525,9.33188889 6.036015,9.98244444 5.1717525,10.2927778 C3.1086375,11.0336667 1.977615,12.7642222 2.4217875,14.5011111 C2.6078925,15.2288889 2.28912,15.9936667 1.590015,16.4971111 C-0.0785175,17.6987778 -0.468255,19.6172222 0.64239,21.1621111 C1.107795,21.8094444 1.107795,22.6134444 0.64239,23.2607778 C-0.468255,24.8057778 -0.07866,26.724 1.590015,27.9257778 C2.28912,28.4293333 2.6078925,29.194 2.4217875,29.9216667 C1.9777575,31.6585556 3.1086375,33.3891111 5.1717525,34.13 C6.0361575,34.4404444 6.6423525,35.0911111 6.7537875,35.828 C6.97509,37.2905556 8.2308,38.486 9.9446475,38.9667778 L2.410245,51.0021111 C2.2442325,51.2671111 2.2704525,51.5807778 2.4787875,51.8268889 C2.6871225,52.073 3.0459375,52.2167778 3.42456,52.1998889 L10.6542975,51.9147778 L14.8138725,56.5345556 C15.01494,56.7577778 15.34212,56.889 15.688395,56.889 C15.7164675,56.889 15.7446825,56.8881111 15.7728975,56.8864444 C16.1499525,56.8632222 16.4831175,56.6862222 16.6489875,56.4212222 L24.176835,44.3956667 C25.17804,44.4897778 26.21943,44.3418889 27.15423,43.9332222 C27.9842925,43.5704444 29.0154225,43.5703333 29.84577,43.9332222 C30.60045,44.263 31.4242425,44.4232222 32.240625,44.4231111 C32.454945,44.4231111 32.66841,44.4108889 32.880165,44.389 L40.4122875,56.4212222 C40.5781575,56.6862222 40.9113225,56.8632222 41.2883775,56.8864444 C41.3165925,56.8882222 41.3448075,56.889 41.37288,56.889 C41.719155,56.889 42.046335,56.7577778 42.2474025,56.5345556 L46.4069775,51.9147778 L53.636715,52.1998889 C54.0132,52.2152222 54.3741525,52.0728889 54.5824875,51.8268889 C54.790965,51.5807778 54.8170425,51.2671111 54.65103,51.0021111 L47.10765,38.9518889 C48.7947075,38.4616667 50.0273325,37.2757778 50.246355,35.8278889 C50.35779,35.091 50.9641275,34.4404444 51.82839,34.13 C53.891505,33.3891111 55.0225275,31.6585556 54.578355,29.9216667 C54.39225,29.1938889 54.7110225,28.4292222 55.4101275,27.9256667 C57.07866,26.724 57.4683975,24.8055556 56.3577525,23.2606667 C55.89249,22.6136667 55.89249,21.8094444 56.357895,21.1622222 Z M15.522525,54.421 L12.0644775,50.5804444 C11.853435,50.3461111 11.50374,50.2116667 11.135805,50.227 L5.12544,50.4641111 L12.03897,39.42 C12.5478375,39.639 12.9659325,39.981 13.21431,40.4014444 C13.7220375,41.2612222 14.59257,41.9127778 15.63282,42.2808889 L13.3475475,45.9314444 C13.088625,46.345 13.3087875,46.8438889 13.8391725,47.0457778 C13.99008,47.1032222 14.1498225,47.1304444 14.3071425,47.1304444 C14.7027225,47.1304444 15.083055,46.9584444 15.2684475,46.6624444 L17.8001025,42.6181111 C18.069,42.6114444 18.3401775,42.5878889 18.6114975,42.5457778 C19.545015,42.4004444 20.5257,42.6492222 21.1713675,43.1943333 C21.46734,43.4442222 21.7975125,43.657 22.1514825,43.832 L15.522525,54.421 Z M51.9356925,50.4641111 L45.925185,50.2271111 C45.55782,50.2111111 45.207555,50.3461111 44.9965125,50.5805556 L41.538465,54.4211111 L34.8946875,43.808 C35.2309875,43.6374444 35.545485,43.4331111 35.82849,43.1942222 C36.4741575,42.6491111 37.454985,42.4006667 38.38836,42.5456667 C38.6806275,42.5911111 38.9727525,42.6147778 39.261885,42.6191111 L41.79297,46.6624444 C41.97822,46.9583333 42.35841,47.1303333 42.7541325,47.1303333 C42.9114525,47.1303333 43.0713375,47.1031111 43.222245,47.0456667 C43.75263,46.8437778 43.9727925,46.3448889 43.71387,45.9313333 L41.41734,42.2626667 C42.43536,41.8915556 43.286085,41.2471111 43.7858325,40.4013333 C44.0420475,39.9675556 44.47938,39.618 45.0101925,39.4002222 L51.9356925,50.4641111 Z M53.96019,26.7015556 C52.71816,27.596 52.15215,28.9547778 52.4826075,30.2475556 C52.7325525,31.2253333 52.096005,32.1993333 50.9347725,32.6163333 C49.3991925,33.1677778 48.3221775,34.3235556 48.1241025,35.6327778 C47.974335,36.6228889 46.98282,37.3958889 45.713145,37.5126667 C44.03421,37.6671111 42.5517825,38.5068889 41.844555,39.7042222 C41.3097525,40.6097778 40.060455,41.1063333 38.806455,40.9111111 C37.1487525,40.6536667 35.4056925,41.0948889 34.25871,42.0633333 C33.39117,42.7957778 32.006355,42.9667778 30.8910075,42.4793333 C30.1534275,42.157 29.3269275,41.9957778 28.5001425,41.9957778 C27.6735,41.9957778 26.8465725,42.157 26.1092775,42.4792222 C24.99393,42.9666667 23.609115,42.7956667 22.741575,42.0633333 C21.59445,41.095 19.851675,40.6535556 18.19383,40.9111111 C16.9399725,41.1061111 15.690675,40.6096667 15.1558725,39.7042222 C14.448645,38.5068889 12.96636,37.6671111 11.2872825,37.5126667 C10.017465,37.3958889 9.0260925,36.6227778 8.876325,35.6327778 C8.67825,34.3236667 7.601235,33.1677778 6.065655,32.6162222 C4.90428,32.1992222 4.267875,31.2252222 4.51782,30.2474444 C4.8482775,28.9546667 4.282125,27.5958889 3.0402375,26.7014444 C2.10102,26.025 1.88157,24.9452222 2.5067175,24.0755556 C3.3335025,22.9256667 3.3335025,21.497 2.5067175,20.347 C1.8814275,19.4773333 2.1008775,18.3976667 3.040095,17.7211111 C4.282125,16.8266667 4.848135,15.4678889 4.51782,14.1751111 C4.267875,13.1974444 4.9044225,12.2233333 6.065655,11.8063333 C7.601235,11.2548889 8.67825,10.0991111 8.876325,8.78988889 C9.0260925,7.79966667 10.0176075,7.02677778 11.2872825,6.91 C12.9662175,6.75555556 14.4487875,5.91577778 15.1558725,4.71844444 C15.690675,3.81288889 16.9396875,3.31666667 18.1939725,3.51155556 C19.8526725,3.76933333 21.5945925,3.32766667 22.7417175,2.35933333 C23.6092575,1.627 24.994215,1.45577778 26.10942,1.94344444 C27.5841525,2.588 29.4164175,2.588 30.89115,1.94344444 C32.0064975,1.45577778 33.39117,1.62688889 34.2588525,2.35933333 C35.4059775,3.32766667 37.148325,3.76922222 38.8065975,3.51155556 C40.061025,3.31644444 41.30961,3.81311111 41.844555,4.71844444 C42.5517825,5.91577778 44.0340675,6.75555556 45.713145,6.91 C46.9829625,7.02677778 47.974335,7.79988889 48.1241025,8.78988889 C48.3221775,10.099 49.3991925,11.255 50.9347725,11.8063333 C52.0961475,12.2233333 52.7325525,13.1974444 52.4826075,14.1751111 C52.15215,15.4678889 52.7183025,16.8266667 53.9603325,17.7211111 C54.89955,18.3975556 55.119,19.4773333 54.4938525,20.347 C53.6670675,21.4972222 53.6670675,22.9258889 54.4938525,24.0756667 C55.118715,24.9453333 54.899265,26.0251111 53.96019,26.7015556 Z" id="Shape"></path>
                                    <path d="M45.5601,18.6493333 C45.5601,17.2073333 44.05587,16.0344444 42.20679,16.0344444 L34.9296,16.0344444 C35.5436325,15.1391111 36.3416325,13.832 36.9974175,12.2758889 C37.498305,11.088 36.6567,9.79677778 35.121975,9.39788889 L35.05614,9.38077778 C33.649665,9.01488889 32.1024,9.53311111 31.4570175,10.5857778 C30.5133825,12.1258889 28.4126475,14.8567778 24.86169,16.0345556 L24.1644375,16.0345556 C23.5494075,15.4891111 22.6490925,15.1438889 21.646605,15.1438889 L17.07777,15.1438889 C15.2288325,15.1438889 13.7246025,16.3167778 13.7246025,17.7584444 L13.7246025,30.2273333 C13.7246025,31.669 15.2288325,32.8418889 17.07777,32.8418889 L21.646605,32.8418889 C22.6490925,32.8418889 23.5494075,32.4966667 24.1644375,31.9512222 L38.780235,31.9512222 C40.6291725,31.9512222 42.1334025,30.7783333 42.1334025,29.3366667 C42.1334025,28.8513333 41.9629725,28.3964444 41.6662875,28.0066667 C42.6307275,27.547 43.27554,26.7182222 43.27554,25.7742222 C43.27554,25.2888889 43.10511,24.834 42.808425,24.4442222 C43.772865,23.9845556 44.4176775,23.1557778 44.4176775,22.2117778 C44.4176775,21.7264444 44.2472475,21.2715556 43.9505625,20.8817778 C44.915145,20.4221111 45.5601,19.5932222 45.5601,18.6493333 Z M42.20679,19.5968889 L38.7800925,19.5968889 C38.1898575,19.5968889 37.7113425,19.97 37.7113425,20.4302222 C37.7113425,20.8904444 38.1898575,21.2635556 38.7800925,21.2635556 L41.06451,21.2635556 C41.7349725,21.2635556 42.28032,21.6888889 42.28032,22.2115556 C42.28032,22.7342222 41.73483,23.1595556 41.06451,23.1595556 L37.6378125,23.1595556 C37.0475775,23.1595556 36.5690625,23.5326667 36.5690625,23.9928889 C36.5690625,24.4531111 37.0475775,24.8262222 37.6378125,24.8262222 L39.92223,24.8262222 C40.5926925,24.8262222 41.13804,25.2515556 41.13804,25.7742222 C41.13804,26.2968889 40.59255,26.7222222 39.92223,26.7222222 L36.495675,26.7222222 C35.90544,26.7222222 35.426925,27.0953333 35.426925,27.5555556 C35.426925,28.0157778 35.90544,28.3888889 36.495675,28.3888889 L38.7800925,28.3888889 C39.450555,28.3888889 39.9959025,28.8142222 39.9959025,29.3368889 C39.9959025,29.8595556 39.4504125,30.2848889 38.7800925,30.2848889 L24.9997725,30.2848889 L24.9997725,22.2118889 C24.9997725,21.7516667 24.5212575,21.3785556 23.9310225,21.3785556 C23.3407875,21.3785556 22.8622725,21.7516667 22.8622725,22.2118889 L22.8622725,30.2275556 C22.8622725,30.7503333 22.3167825,31.1755556 21.6464625,31.1755556 L17.0776275,31.1755556 C16.407165,31.1755556 15.8618175,30.7502222 15.8618175,30.2275556 L15.8618175,17.7583333 C15.8618175,17.2355556 16.4073075,16.8103333 17.0776275,16.8103333 L21.6464625,16.8103333 C22.316925,16.8103333 22.8622725,17.2356667 22.8622725,17.7583333 L22.8622725,18.6488889 C22.8622725,19.1091111 23.3407875,19.4822222 23.9310225,19.4822222 C24.5212575,19.4822222 24.9997725,19.1091111 24.9997725,18.6488889 L24.9997725,17.701 L25.0733025,17.701 C25.2092475,17.701 25.34391,17.6807778 25.4703075,17.6413333 C29.807865,16.2884444 32.2914975,13.0901111 33.3856125,11.3041111 C33.56673,11.0084444 33.9946575,10.8616667 34.379835,10.9615556 L34.4458125,10.9787778 C34.8676125,11.0883333 35.101455,11.4367778 34.9670775,11.7555556 C33.8302125,14.4526667 32.19588,16.3868889 32.17992,16.4055556 C31.9611825,16.6612222 31.9409475,16.99 32.1267675,17.261 C32.31273,17.5318889 32.674965,17.7011111 33.06912,17.7011111 L42.207075,17.7011111 C42.8775375,17.7011111 43.422885,18.1264444 43.422885,18.6491111 C43.422885,19.1717778 42.8772525,19.5968889 42.20679,19.5968889 Z" id="Shape"></path>
                                    <ellipse id="Oval" cx="19.38" cy="28.4463333" rx="1.06875" ry="1"></ellipse>
                                </g>
                            </g>
                        </g>
                    </g>
                </g>
            </g>
        </g>
    </g>
</svg>

<svg width="57" height="57" xmlns="http://www.w3.org/2000/svg"><defs><linearGradient x1="50%" y1="0%" x2="50%" y2="100%" id="a"><stop stop-color="#B4EC51" offset="0%"/><stop stop-color="#429321" offset="100%"/></linearGradient></defs><g fill="url(#a)"><path d="M56.358 21.162c1.11-1.545.72-3.463-.948-4.665-.699-.503-1.018-1.268-.832-1.996.445-1.737-.686-3.467-2.75-4.208-.864-.31-1.47-.961-1.582-1.698-.266-1.759-2.027-3.132-4.283-3.34-.945-.087-1.78-.56-2.177-1.233-.95-1.609-3.17-2.49-5.397-2.145-.934.146-1.915-.103-2.56-.648C34.288-.072 31.827-.376 29.846.49a3.464 3.464 0 0 1-2.692 0c-1.981-.866-4.441-.562-5.982.739-.646.545-1.627.794-2.56.648-2.228-.345-4.447.536-5.398 2.145-.398.674-1.232 1.146-2.177 1.233-2.256.208-4.017 1.581-4.283 3.34-.112.737-.718 1.387-1.582 1.698-2.063.74-3.194 2.471-2.75 4.208.186.728-.133 1.493-.832 1.996-1.669 1.202-2.058 3.12-.948 4.665a1.752 1.752 0 0 1 0 2.099c-1.11 1.545-.72 3.463.948 4.665.7.503 1.018 1.268.832 1.996-.444 1.737.687 3.467 2.75 4.208.864.31 1.47.961 1.582 1.698.221 1.463 1.477 2.658 3.19 3.139L2.41 51.002a.68.68 0 0 0 .069.825c.208.246.567.39.946.373l7.23-.285 4.159 4.62c.2.223.528.354.874.354.028 0 .057 0 .085-.003.377-.023.71-.2.876-.465l7.528-12.025a6.064 6.064 0 0 0 2.977-.463 3.464 3.464 0 0 1 2.692 0 5.999 5.999 0 0 0 3.034.456l7.532 12.032c.166.265.5.442.876.465l.085.003c.346 0 .673-.131.874-.354l4.16-4.62 7.23.285c.376.015.737-.127.945-.373a.68.68 0 0 0 .069-.825l-7.543-12.05c1.687-.49 2.92-1.676 3.138-3.124.112-.737.718-1.388 1.582-1.698 2.064-.74 3.195-2.471 2.75-4.208-.186-.728.133-1.493.832-1.996 1.669-1.202 2.058-3.12.948-4.665a1.752 1.752 0 0 1 0-2.099zM15.523 54.421l-3.459-3.84c-.21-.235-.56-.37-.928-.354l-6.01.237 6.913-11.044c.509.219.927.561 1.175.981.508.86 1.379 1.512 2.419 1.88l-2.285 3.65c-.26.414-.04.913.491 1.115.151.057.31.084.468.084.396 0 .776-.172.961-.468l2.532-4.044c.269-.007.54-.03.811-.072.934-.146 1.915.103 2.56.648.296.25.627.463.98.638l-6.628 10.589zm36.413-3.957l-6.01-.237c-.368-.016-.718.12-.93.354l-3.458 3.84-6.643-10.613c.336-.17.65-.375.933-.614.646-.545 1.627-.793 2.56-.648a6.3 6.3 0 0 0 .874.073l2.531 4.043c.185.296.565.468.961.468.157 0 .317-.027.468-.084.53-.202.75-.701.492-1.115l-2.297-3.668c1.018-.371 1.87-1.016 2.369-1.862.256-.433.693-.783 1.224-1l6.926 11.063zm2.024-23.762c-1.242.894-1.808 2.253-1.477 3.546.25.977-.387 1.951-1.548 2.368-1.536.552-2.613 1.708-2.81 3.017-.15.99-1.142 1.763-2.412 1.88-1.679.154-3.161.994-3.868 2.191-.535.906-1.785 1.402-3.039 1.207-1.657-.257-3.4.184-4.547 1.152-.868.733-2.253.904-3.368.416a6.007 6.007 0 0 0-2.39-.483c-.828 0-1.654.161-2.392.483-1.115.488-2.5.317-3.367-.416-1.148-.968-2.89-1.41-4.548-1.152-1.254.195-2.503-.301-3.038-1.207-.707-1.197-2.19-2.037-3.869-2.191-1.27-.117-2.26-.89-2.41-1.88-.199-1.31-1.276-2.465-2.811-3.017-1.162-.417-1.798-1.39-1.548-2.369.33-1.292-.236-2.651-1.478-3.546-.939-.676-1.158-1.756-.533-2.625.827-1.15.827-2.579 0-3.729-.626-.87-.406-1.95.533-2.626 1.242-.894 1.808-2.253 1.478-3.546-.25-.978.386-1.952 1.548-2.369C7.6 11.255 8.678 10.1 8.876 8.79c.15-.99 1.142-1.763 2.411-1.88 1.68-.154 3.162-.994 3.869-2.192.535-.905 1.784-1.401 3.038-1.206 1.659.257 3.4-.184 4.548-1.153.867-.732 2.252-.903 3.367-.416 1.475.645 3.307.645 4.782 0 1.115-.487 2.5-.316 3.368.416 1.147.969 2.89 1.41 4.548 1.153 1.254-.196 2.503.301 3.038 1.206.707 1.198 2.19 2.038 3.868 2.192 1.27.117 2.261.89 2.411 1.88.198 1.309 1.275 2.465 2.81 3.016 1.162.417 1.799 1.391 1.549 2.37-.33 1.292.235 2.65 1.477 3.545.94.677 1.159 1.756.534 2.626-.827 1.15-.827 2.579 0 3.729.625.87.405 1.95-.534 2.626z"/><path d="M45.56 18.65c0-1.443-1.504-2.616-3.353-2.616H34.93a21.573 21.573 0 0 0 2.067-3.758c.501-1.188-.34-2.48-1.875-2.878l-.066-.017c-1.406-.366-2.954.152-3.599 1.205-.944 1.54-3.044 4.27-6.595 5.449h-.698c-.615-.546-1.515-.891-2.517-.891h-4.57c-1.848 0-3.352 1.173-3.352 2.614v12.47c0 1.441 1.504 2.614 3.353 2.614h4.569c1.002 0 1.902-.345 2.517-.89H38.78c1.85 0 3.353-1.174 3.353-2.615 0-.486-.17-.94-.467-1.33.965-.46 1.61-1.289 1.61-2.233 0-.485-.17-.94-.468-1.33.965-.46 1.61-1.288 1.61-2.232 0-.486-.17-.94-.467-1.33.964-.46 1.61-1.289 1.61-2.233zm-3.353.947H38.78c-.59 0-1.069.373-1.069.833 0 .46.479.834 1.07.834h2.284c.67 0 1.215.425 1.215.948 0 .522-.545.948-1.215.948h-3.427c-.59 0-1.069.373-1.069.833 0 .46.479.833 1.069.833h2.284c.67 0 1.216.426 1.216.948 0 .523-.545.948-1.216.948h-3.426c-.59 0-1.07.373-1.07.834 0 .46.48.833 1.07.833h2.284c.67 0 1.216.425 1.216.948 0 .523-.546.948-1.216.948H25v-8.073c0-.46-.479-.833-1.069-.833s-1.069.373-1.069.833v8.016c0 .522-.545.948-1.216.948h-4.568c-.67 0-1.216-.426-1.216-.948v-12.47c0-.522.545-.948 1.216-.948h4.568c.67 0 1.216.426 1.216.948v.89c0 .461.479.834 1.069.834S25 19.11 25 18.65v-.95h.073c.136 0 .27-.02.397-.06 4.338-1.353 6.821-4.55 7.916-6.337.18-.296.609-.442.994-.342l.066.017c.422.11.655.458.521.777-1.137 2.697-2.771 4.63-2.787 4.65a.68.68 0 0 0-.053.855c.186.27.548.44.942.44h9.138c.67 0 1.216.425 1.216.948 0 .523-.546.948-1.216.948z"/><ellipse cx="19.38" cy="28.446" rx="1.069" ry="1"/></g></svg>
